X:25
%%score 1 2
%%pagewidth 800pt
T: We be soldiers three
M: 6/8
L: 1/8
K: G
V:1 clef-treble
V:2 clef-bass octave=-1
V:1
[G,B,E]2z [B,^DF]2z|A2G F2z & [B,E]3 [B,^D]3|[G,E]>FG [B,^DF]2[B,DB]|G>FE F3 & [B,E]3 [B,^D]3|
w: We be sol-diers three, \
%%vocalfont Baskerville10Pro-Italic 14
w:Par-dona* moy, je vous* an pree,
V:2
E2z B,2z|E,3 B,2z|E3 B,3|E,3 B,3|
%%vocalfont Baskerville10Pro 14
V:1
d>cB A>GA &=D3 D3|B>AG F2B & ^D2E D2E|A>BG F>EF & E2E C2^D|GE2-E3||
w: Lately* come forth of the Low* Count-ry, With ne-ver a pen-ny of mo-ney.*
V:2
[G,B]>AG [DF]3|G>FE B2G & B,3-B,2z|c2B A2A & z3z2B,|[EG]3 E,3||

